X:354
T: Treue Liebe (85), S. 229
N: T0243
O: Luxemburg
S: Singendes Volk, Esch-Alzette 1937 posth.]
N: Heffingen, fff Susanna Berchem-Petry, 1906
R: Liebeslieder]
M: 2/4
L: 1/8
K: Bb
 | d2BG | FBB2 |
c2Bc | dBF2 |
F2GF | Fed2 |
c2GA | B2z2

@@@ Tune index: 8408
